svg/user/contacts_4_line.svg

<svg xmlns="http://www.w3.org/2000/svg" width="24" height="24" viewBox="0 0 24 24"><g fill="none" fill-rule="evenodd"><path d="M24,0 L24,24 L0,24 L0,0 L24,0 Z M12.5935,23.2578 L12.5819,23.2595 L12.5109,23.295 L12.4919,23.2987 L12.4767,23.295 L12.4057,23.2595 C12.3958,23.2564 12.387,23.259 12.3821,23.2649 L12.378,23.2758 L12.3609,23.7031 L12.3659,23.7235 L12.3769,23.7357 L12.4805,23.8097 L12.4953,23.8136 L12.5071,23.8097 L12.6107,23.7357 L12.6233,23.7197 L12.6267,23.7031 L12.6096,23.2758 C12.6076,23.2657 12.601,23.2593 12.5935,23.2578 Z M12.8584,23.1453 L12.8445,23.1473 L12.6598,23.2397 L12.6499,23.2499 L12.6472,23.2611 L12.6651,23.6906 L12.6699,23.7034 L12.6784,23.7105 L12.8793,23.8032 C12.8914,23.8069 12.9022,23.803 12.9078,23.7952 L12.9118,23.7812 L12.8777,23.1665 C12.8753,23.1546 12.8674,23.147 12.8584,23.1453 Z M12.143,23.1473 C12.1332,23.1424 12.1222,23.1453 12.1156,23.1526 L12.1099,23.1665 L12.0758,23.7812 C12.0751,23.7927 12.0828,23.8019 12.0926,23.8046 L12.1083,23.8032 L12.3092,23.7105 L12.3186,23.7024 L12.3225,23.6906 L12.3404,23.2611 L12.3372,23.2485 L12.3278,23.2397 L12.143,23.1473 Z"/><path fill="#09244B" d="M6,7 C6,4.23858 8.23858,2 11,2 C13.7614,2 16,4.23858 16,7 C16,9.76142 13.7614,12 11,12 C8.23858,12 6,9.76142 6,7 Z M11,4 C9.34315,4 8,5.34315 8,7 C8,8.65685 9.34315,10 11,10 C12.6569,10 14,8.65685 14,7 C14,5.34315 12.6569,4 11,4 Z M11,13 C13.3955,13 15.5753,13.6937 17.1777,14.6715 C17.9786,15.1602 18.6621,15.7363 19.156,16.3615 C19.642,16.9767 20,17.713 20,18.5 C20,19.3449 19.5889,20.0111 18.9973,20.4859 C18.4368,20.9359 17.6982,21.2336 16.9128,21.4416 C15.3353,21.8593 13.229,22 11,22 C8.77101,22 6.66466,21.8593 5.08716,21.4416 C4.30182,21.2336 3.56324,20.9359 3.00266,20.4859 C2.41114,20.0111 2,19.3449 2,18.5 C2,17.713 2.35805,16.9767 2.84397,16.3615 C3.33788,15.7363 4.02143,15.1602 4.82227,14.6715 C6.42467,13.6937 8.60453,13 11,13 Z M11,15 C8.97719,15 7.15705,15.5898 5.86402,16.3788 C5.21714,16.7735 4.72913,17.2015 4.41339,17.6013 C4.08967,18.0111 4,18.3206 4,18.5 C4,18.6216 4.03657,18.7512 4.2547,18.9263 C4.50376,19.1262 4.93676,19.3328 5.59914,19.5082 C6.91706,19.8572 8.81071,20 11,20 C13.1893,20 15.0829,19.8572 16.4009,19.5082 C17.0632,19.3328 17.4962,19.1262 17.7453,18.9263 C17.9634,18.7512 18,18.6216 18,18.5 C18,18.3206 17.9103,18.0111 17.5866,17.6013 C17.2709,17.2015 16.7829,16.7735 16.136,16.3788 C14.8429,15.5898 13.0228,15 11,15 Z M21,13 C21.5523,13 22,13.4477 22,14 C22,14.51285 21.613973,14.9355092 21.1166239,14.9932725 L21,15 L20,15 C19.4477,15 19,14.5523 19,14 C19,13.48715 19.386027,13.0644908 19.8833761,13.0067275 L20,13 L21,13 Z M18,11 C18,10.4477 18.4477,10 19,10 L21,10 C21.5523,10 22,10.4477 22,11 C22,11.5523 21.5523,12 21,12 L19,12 C18.4477,12 18,11.5523 18,11 Z M18,7 C17.4477,7 17,7.44772 17,8 C17,8.55228 17.4477,9 18,9 L21,9 C21.5523,9 22,8.55228 22,8 C22,7.44772 21.5523,7 21,7 L18,7 Z"/></g></svg>

<svg xmlns="http://www.w3.org/2000/svg" width="24" height="24"><g fill="none" fill-rule="evenodd"><path d="M24 0v24H0V0zM12.594 23.258l-.012.002-.071.035-.02.004-.014-.004-.071-.036c-.01-.003-.019 0-.024.006l-.004.01-.017.428.005.02.01.013.104.074.015.004.012-.004.104-.074.012-.016.004-.017-.017-.427c-.002-.01-.009-.017-.016-.018m.264-.113-.014.002-.184.093-.01.01-.003.011.018.43.005.012.008.008.201.092c.012.004.023 0 .029-.008l.004-.014-.034-.614c-.003-.012-.01-.02-.02-.022m-.715.002a.023.023 0 0 0-.027.006l-.006.014-.034.614c0 .012.007.02.017.024l.015-.002.201-.093.01-.008.003-.011.018-.43-.003-.012-.01-.01z"/><path fill="#09244B" d="M6 7a5 5 0 1 1 10 0A5 5 0 0 1 6 7m5-3a3 3 0 1 0 0 6 3 3 0 0 0 0-6m0 9c2.396 0 4.575.694 6.178 1.672.8.488 1.484 1.064 1.978 1.69.486.615.844 1.351.844 2.138 0 .845-.411 1.511-1.003 1.986-.56.45-1.299.748-2.084.956-1.578.417-3.684.558-5.913.558s-4.335-.14-5.913-.558c-.785-.208-1.524-.506-2.084-.956C2.41 20.01 2 19.345 2 18.5c0-.787.358-1.523.844-2.139.494-.625 1.177-1.2 1.978-1.69C6.425 13.695 8.605 13 11 13m0 2c-2.023 0-3.843.59-5.136 1.379-.647.394-1.135.822-1.45 1.222-.324.41-.414.72-.414.899 0 .122.037.251.255.426.249.2.682.407 1.344.582C6.917 19.858 8.811 20 11 20c2.19 0 4.083-.143 5.4-.492.663-.175 1.096-.382 1.345-.582.218-.175.255-.304.255-.426 0-.18-.09-.489-.413-.899-.316-.4-.804-.828-1.451-1.222C14.843 15.589 13.023 15 11 15m10-2a1 1 0 0 1 .117 1.993L21 15h-1a1 1 0 0 1-.117-1.993L20 13zm-3-2a1 1 0 0 1 1-1h2a1 1 0 1 1 0 2h-2a1 1 0 0 1-1-1m0-4a1 1 0 1 0 0 2h3a1 1 0 1 0 0-2z"/></g></svg>
